X: 25
T: REELS: Galtee Rangers Set
T: Galtee Rangers
C: C: Trad.; S: Denis Murphy & Julia Clifford
C: Set Leaders: Anton, Oliushka, Sophie
Z: Anton Zille ed.; Bregolas at The Session
N: https://thesession.org/members/26966/sets/63225
R: Reel
M: 4/4
L: 1/8
Q: 1/2=100
K: Dmaj
dB|AFFE F2DE|F2FE FAdB|AFFE F2DE|FABA FE E2|
AF~F2 FEDE|~F3E FAdB|AF~F2 FEDE|FAEG FD E/F/G||
A3B AGFG|ABde fee2|fedc BcdB|ABde fd~d2|
~A3B AF~F2|ABde fe~e2|fedc BcdB|A/B/c de fedB||
T: Glentaun / Glountane / Gleanntán
K: Gmaj
DGBG AGBG|DGBG AE~E2|DGBG AGAB|d2ed BG~G2|
DGBG AGBG|DGBG AE~E2|DGBG A2 A/B/c|d2ed BG~G2||
Bd~d2 d2 ef|g2fg eA~A2|Bd~d2 d2 gd|BdAc BG~G2|
Bd~d2 d2 ef|g2fg eA~A2|B/c/d ef gage|dBAc BG~G2||
T: Callaghan's / Cal Callaghan's
K: Dmaj
F2 AF GE~E2|FDDF ABAG|F2 AF GE~E2|FAGE DFAG|
F2~F2 GEEG|FDDF ABAG|EFAF GE~E2|AFGE D2 A/B/c||
d2 fd dcAB|AG E/F/G A2 Bc|d2~d2 dcAB|=cdAB ~G2 FG|
Ad~d2 dcAB|AG E/F/G ABcA|d2~d2 defd|defd dcAG||

